build/svg/cmd/sc_hidecolumn.svg

<?xml version="1.0" encoding="UTF-8" standalone="no"?>
<svg
   xmlns:dc="http://purl.org/dc/elements/1.1/"
   xmlns:cc="http://creativecommons.org/ns#"
   xmlns:rdf="http://www.w3.org/1999/02/22-rdf-syntax-ns#"
   xmlns:svg="http://www.w3.org/2000/svg"
   xmlns="http://www.w3.org/2000/svg"
   xmlns:sodipodi="http://sodipodi.sourceforge.net/DTD/sodipodi-0.dtd"
   xmlns:inkscape="http://www.inkscape.org/namespaces/inkscape"
   viewBox="0 0 16 16"
   version="1.1"
   id="svg8"
   sodipodi:docname="sc_hidecolumn.svg"
   inkscape:version="0.92.5 (2060ec1f9f, 2020-04-08)"
   inkscape:export-filename="/home/jupiter007/Libreoffice yaru theme fullcolor/build/cmd/sc_hidecolumn.png"
   inkscape:export-xdpi="95"
   inkscape:export-ydpi="95">
  <metadata
     id="metadata14">
    <rdf:RDF>
      <cc:Work
         rdf:about="">
        <dc:format>image/svg+xml</dc:format>
        <dc:type
           rdf:resource="http://purl.org/dc/dcmitype/StillImage" />
      </cc:Work>
    </rdf:RDF>
  </metadata>
  <defs
     id="defs12" />
  <sodipodi:namedview
     pagecolor="#ffffff"
     bordercolor="#666666"
     borderopacity="1"
     objecttolerance="10"
     gridtolerance="10"
     guidetolerance="10"
     inkscape:pageopacity="0"
     inkscape:pageshadow="2"
     inkscape:window-width="1920"
     inkscape:window-height="1011"
     id="namedview10"
     showgrid="true"
     inkscape:zoom="59"
     inkscape:cx="8.0219974"
     inkscape:cy="6.1353278"
     inkscape:window-x="1920"
     inkscape:window-y="32"
     inkscape:window-maximized="1"
     inkscape:current-layer="svg8">
    <inkscape:grid
       type="xygrid"
       id="grid821" />
  </sodipodi:namedview>
  <rect
     style="opacity:1;fill:#ffffff;fill-opacity:1;stroke:none;stroke-width:2;stroke-linecap:round;stroke-linejoin:round;stroke-miterlimit:4;stroke-dasharray:none;stroke-opacity:1"
     id="rect814"
     width="10"
     height="10"
     x="2.9999998"
     y="3" />
  <path
     d="M 1.9999999,4.0000002 V 12 c 0,2 0.9999999,2 2.9999999,2 H 11 c 2,0 3,0 3,-2 V 4.0000002 c 0,-2 -1,-2 -3,-2 H 4.9999998 c -2,0 -2.9999999,0 -2.9999999,2 z m 0.9999999,0 c 0,-1 1,-1 2,-1 H 11 c 1,0 2,0 2,1 v 2 h -2 v 1 h 2 v 2 H 11 V 10 h 2 v 2 c 0,1 -1,1 -2,1 H 4.9999998 c -1,0 -2,0 -2,-1 v -2 h 2 V 9.0000002 h -2 v -2 h 2 v -1 h -2 z"
     id="path2"
     inkscape:connector-curvature="0"
     style="fill:#6d6d6d;fill-opacity:1"
     sodipodi:nodetypes="cccccccccccccccccccccccccccccccccc" />
  <path
     inkscape:connector-curvature="0"
     style="fill:#762572"
     d="M 4.9999998,3.0000002 V 13 h 1.71875 l 3.28125,-3.2812498 V 13 H 11 v -4.2812498 -4 -1.71875 H 9.9999998 v 1.28125 l -4,4 v -2.5625 l 2.71875,-2.71875 h -1.4375 l -1.28125,1.28125 v -1.28125 z m 5,2.71875 v 2.5625 l -4,3.9999998 V 9.7187502 Z"
     id="path4" />
  <circle
     style="opacity:0.6;fill:#000000;fill-opacity:1;fill-rule:evenodd;stroke:#000000;stroke-width:2;stroke-linecap:butt;stroke-linejoin:round;stroke-miterlimit:4;stroke-dasharray:none;stroke-opacity:1"
     id="path831"
     cx="12.000001"
     cy="11.999999"
     r="3" />
  <circle
     r="3"
     cy="11.999999"
     cx="12.000001"
     id="circle833"
     style="opacity:1;fill:#ffffff;fill-opacity:1;fill-rule:evenodd;stroke:none;stroke-width:2;stroke-linecap:butt;stroke-linejoin:round;stroke-miterlimit:4;stroke-dasharray:none;stroke-opacity:1" />
  <path
     d="m 12,10 c -1.104569,0 -2.0000001,0.895431 -2.0000001,2 0,1.10457 0.8954311,2 2.0000001,2 1.104569,0 2,-0.89543 2,-2 0.02896,-0.194894 0.02896,-0.392997 0,-0.587891 C 13.825992,11.801139 13.42455,12.037143 13,12 12.447715,12 12,11.552285 12,11 11.96318,10.574973 12.200048,10.173388 12.589844,10 12.39431,9.97085 12.195534,9.97085 12,10 Z"
     id="path2-3"
     inkscape:connector-curvature="0"
     style="fill:#232629"
     sodipodi:nodetypes="csscccccc" />
  <rect
     style="opacity:0.6;fill:#aee3f8;fill-opacity:1;fill-rule:evenodd;stroke:#000000;stroke-width:2;stroke-linecap:butt;stroke-linejoin:round;stroke-miterlimit:4;stroke-dasharray:none;stroke-opacity:1"
     id="rect845"
     width="1"
     height="9"
     x="17.127434"
     y="-4.5000219"
     transform="rotate(45)"
     inkscape:transform-center-x="3.559322"
     inkscape:transform-center-y="-0.47457627" />
  <rect
     y="-4.5000219"
     x="17.127434"
     height="9"
     width="1"
     id="rect847"
     style="opacity:1;fill:#aee3f8;fill-opacity:1;fill-rule:evenodd;stroke:none;stroke-width:2;stroke-linecap:butt;stroke-linejoin:round;stroke-miterlimit:4;stroke-dasharray:none;stroke-opacity:1"
     transform="rotate(45)"
     inkscape:transform-center-x="3.559322"
     inkscape:transform-center-y="-0.47457627" />
</svg>

<svg xmlns="http://www.w3.org/2000/svg" viewBox="0 0 16 16"><path fill="#fff" d="M3 3h10v10H3z"/><path d="M2 4v8c0 2 1 2 3 2h6c2 0 3 0 3-2V4c0-2-1-2-3-2H5C3 2 2 2 2 4zm1 0c0-1 1-1 2-1h6c1 0 2 0 2 1v2h-2v1h2v2h-2v1h2v2c0 1-1 1-2 1H5c-1 0-2 0-2-1v-2h2V9H3V7h2V6H3z" fill="#6d6d6d"/><path d="M5 3v10h1.719L10 9.719V13h1V3h-1v1.281l-4 4V5.72L8.719 3H7.28L6 4.281V3zm5 2.719V8.28l-4 4V9.72z" fill="#762572"/><circle cx="12" cy="12" r="3" opacity=".6" fill-rule="evenodd" stroke="#000" stroke-width="2" stroke-linejoin="round"/><circle r="3" cy="12" cx="12" fill="#fff" fill-rule="evenodd"/><path d="M12 10a2 2 0 102 2 2 2 0 000-.588A1 1 0 0113 12a1 1 0 01-1-1 1 1 0 01.59-1 2 2 0 00-.59 0z" fill="#232629"/><path opacity=".6" fill="#aee3f8" fill-rule="evenodd" stroke="#000" stroke-width="2" stroke-linejoin="round" d="M15.293 8.929l.707.707L9.636 16l-.707-.707z"/><path fill="#aee3f8" fill-rule="evenodd" d="M15.293 8.929l.707.707L9.636 16l-.707-.707z"/></svg>
